lib/brands/logos/3-m.svg

<svg xmlns="http://www.w3.org/2000/svg" fill="none" aria-hidden="true" viewBox="0 0 242 49"><g id="3M"><g id="Group"><path id="Shape" fill="#FF0000" d="M63.6484 5.27234L58.4803 26.3747L53.2953 5.27234H38.0898V13.0642C36.2637 6.2449 29.822 4.53161 23.8536 4.43548C16.5834 4.33936 8.95805 7.50019 8.67626 17.1467H18.7363C18.7363 14.2346 20.9624 12.5666 23.4704 12.6061C26.5475 12.5835 27.9678 13.901 28.041 15.9592C27.934 17.7404 26.8857 18.9844 23.4929 18.9844H20.1114V25.9902H23.1829C24.9244 25.9902 27.3535 26.9402 27.4493 29.4338C27.5676 32.4023 25.5049 33.7142 22.9744 33.7368C18.4488 33.5728 17.7162 30.0784 17.7162 27.0815H7.27856C7.32365 29.1001 6.8277 42.2637 23.1942 42.1676C31.0337 42.2411 36.5061 38.9332 38.1123 34.3757V41.359H48.4146V18.5999L53.9829 41.3646H62.9833L68.5741 18.6225V41.3872H78.8482V5.27234H63.6484ZM38.1179 26.3238C36.8386 23.6606 35.0351 22.4958 34.015 22.1282C36.1454 21.1783 37.2669 19.8891 38.1179 17.3163V26.3238Z"/><g id="Vector"><path fill="black" d="M97.6331 9.3437C97.4921 8.57609 96.8605 7.36824 95.0897 7.36824C93.7701 7.36824 92.9016 8.21487 92.9016 9.14616C92.9016 9.91376 93.3922 10.529 94.4186 10.7265L96.3698 11.1047C98.9132 11.6014 100.278 13.2608 100.278 15.2306C100.278 17.3867 98.479 19.554 95.225 19.554C91.5143 19.554 89.8789 17.1609 89.659 15.1685L92.1854 14.4968C92.3038 15.8853 93.2682 17.127 95.242 17.127C96.7026 17.127 97.509 16.3933 97.509 15.4056C97.509 14.5984 96.9 13.9606 95.8115 13.7462L93.8547 13.3511C91.6271 12.8995 90.1891 11.4546 90.1891 9.3437C90.1891 6.85462 92.4166 4.95817 95.0615 4.95817C98.4564 4.95817 99.7591 7.01265 100.075 8.59867L97.6331 9.3437Z"/><path fill="black" d="M104.107 14.4009C104.107 16.1619 105.252 17.1496 106.594 17.1496C107.936 17.1496 108.607 16.2578 108.822 15.5128L111.128 16.2804C110.694 17.9003 109.177 19.5597 106.594 19.5597C103.729 19.5597 101.479 17.3867 101.479 14.4065C101.479 11.4038 103.69 9.24775 106.509 9.24775C109.154 9.24775 110.654 10.8846 111.066 12.527L108.715 13.3172C108.478 12.5101 107.869 11.6804 106.566 11.6804C105.235 11.6747 104.107 12.6455 104.107 14.4009Z"/><path fill="black" d="M114.19 4.72676C115.098 4.72676 115.809 5.4605 115.809 6.36357C115.809 7.23278 115.098 7.96088 114.19 7.96088C113.305 7.96088 112.572 7.23278 112.572 6.36357C112.572 5.45486 113.305 4.72676 114.19 4.72676ZM112.888 19.2605V9.54689H115.51V19.2605H112.888Z"/><path fill="black" d="M126.919 16.4779C126.428 18.1543 124.888 19.554 122.497 19.554C119.835 19.554 117.484 17.6407 117.484 14.3614C117.484 11.2571 119.773 9.24211 122.26 9.24211C125.261 9.24211 127.059 11.1611 127.059 14.2767C127.059 14.6549 127.02 15.05 127.02 15.0895H120.072C120.129 16.3707 121.217 17.302 122.52 17.302C123.744 17.302 124.415 16.6924 124.73 15.8232L126.919 16.4779ZM124.471 13.2946C124.432 12.3295 123.8 11.3813 122.3 11.3813C120.941 11.3813 120.191 12.4085 120.129 13.2946H124.471Z"/><path fill="black" d="M128.909 19.2605V9.54689H131.453V10.7491C132.045 9.73879 133.206 9.2929 134.255 9.2929C136.663 9.2929 137.769 11.0087 137.769 13.1422V19.2605H135.146V13.5881C135.146 12.5044 134.616 11.6522 133.353 11.6522C132.208 11.6522 131.537 12.544 131.537 13.6671V19.2605H128.909Z"/><path fill="black" d="M142.032 14.4009C142.032 16.1619 143.177 17.1496 144.519 17.1496C145.861 17.1496 146.532 16.2578 146.747 15.5128L149.053 16.2804C148.619 17.9003 147.102 19.5597 144.513 19.5597C141.649 19.5597 139.404 17.3867 139.404 14.4065C139.404 11.4038 141.615 9.24775 144.434 9.24775C147.079 9.24775 148.579 10.8846 148.991 12.527L146.639 13.3172C146.403 12.5101 145.794 11.6804 144.491 11.6804C143.16 11.6747 142.032 12.6455 142.032 14.4009Z"/><path fill="black" d="M159.537 16.4779C159.041 18.1543 157.501 19.554 155.116 19.554C152.454 19.554 150.102 17.6407 150.102 14.3614C150.102 11.2571 152.392 9.24211 154.879 9.24211C157.879 9.24211 159.672 11.1611 159.672 14.2767C159.672 14.6549 159.633 15.05 159.633 15.0895H152.685C152.747 16.3707 153.83 17.302 155.132 17.302C156.356 17.302 157.027 16.6924 157.343 15.8232L159.537 16.4779ZM157.089 13.2946C157.05 12.3295 156.418 11.3813 154.918 11.3813C153.559 11.3813 152.809 12.4085 152.747 13.2946H157.089Z"/><path fill="black" d="M163.067 15.8063C164.071 15.8063 164.883 16.6134 164.883 17.6068C164.883 18.5889 164.071 19.4016 163.067 19.4016C162.08 19.4016 161.274 18.5889 161.274 17.6068C161.274 16.6134 162.08 15.8063 163.067 15.8063Z"/><path fill="black" d="M98.9978 37.813H93.3133L92.1516 41.0132H89.2698L94.6385 27.01H97.7966L103.12 41.0132H100.16L98.9978 37.813ZM94.2212 35.3239H98.0899L96.1555 30.0296L94.2212 35.3239Z"/><path fill="black" d="M104.581 44.7666V31.2939H107.13V32.4792C107.564 31.7285 108.647 31.0738 110.107 31.0738C112.95 31.0738 114.585 33.2468 114.585 36.131C114.585 39.0716 112.752 41.2503 110.006 41.2503C108.664 41.2503 107.677 40.7141 107.203 40.065V44.7666H104.581ZM109.594 33.4274C108.252 33.4274 107.169 34.4377 107.169 36.1536C107.169 37.8694 108.252 38.8966 109.594 38.8966C110.936 38.8966 112.002 37.892 112.002 36.1536C111.997 34.4321 110.936 33.4274 109.594 33.4274Z"/><path fill="black" d="M116.322 44.7666V31.2939H118.871V32.4792C119.305 31.7285 120.388 31.0738 121.849 31.0738C124.691 31.0738 126.326 33.2468 126.326 36.131C126.326 39.0716 124.494 41.2503 121.747 41.2503C120.405 41.2503 119.418 40.7141 118.95 40.065V44.7666H116.322ZM121.335 33.4274C119.993 33.4274 118.911 34.4377 118.911 36.1536C118.911 37.8694 119.993 38.8966 121.335 38.8966C122.678 38.8966 123.744 37.892 123.744 36.1536C123.744 34.4321 122.678 33.4274 121.335 33.4274Z"/><path fill="black" d="M128.103 41.0076V26.7109H130.731V41.0076H128.103Z"/><path fill="black" d="M134.729 26.4738C135.637 26.4738 136.348 27.2075 136.348 28.1106C136.348 28.9798 135.637 29.7079 134.729 29.7079C133.838 29.7079 133.111 28.9798 133.111 28.1106C133.111 27.2075 133.844 26.4738 134.729 26.4738ZM133.432 41.0076V31.2939H136.054V41.0076H133.432Z"/><path fill="black" d="M147.536 38.225C147.046 39.9069 145.506 41.3067 143.115 41.3067C140.453 41.3067 138.101 39.3933 138.101 36.1141C138.101 33.0098 140.391 30.9948 142.878 30.9948C145.878 30.9948 147.672 32.9138 147.672 36.0294C147.672 36.4076 147.632 36.8026 147.632 36.8422H140.69C140.752 38.1234 141.835 39.0547 143.137 39.0547C144.361 39.0547 145.032 38.4451 145.348 37.5759L147.536 38.225ZM145.094 35.0473C145.055 34.0822 144.423 33.1339 142.923 33.1339C141.558 33.1339 140.808 34.1612 140.752 35.0473H145.094Z"/><path fill="black" d="M158.984 39.2522C158.984 39.907 159.024 40.6181 159.063 41.0132H156.554C156.514 40.8157 156.458 40.3416 156.458 39.89C156.023 40.6576 155.037 41.2559 153.734 41.2559C150.971 41.2559 148.997 39.0829 148.997 36.1366C148.997 33.292 150.914 31.0569 153.655 31.0569C155.33 31.0569 156.119 31.7511 156.396 32.2647V26.7109H158.984V39.2522ZM154.05 38.8966C155.392 38.8966 156.435 37.8694 156.435 36.1141C156.435 34.3813 155.386 33.4105 154.05 33.4105C152.708 33.4105 151.642 34.3982 151.642 36.1366C151.642 37.8694 152.668 38.8966 154.05 38.8966Z"/><path fill="black" d="M169.304 31.2939H171.255V33.625H169.304V37.6888C169.304 38.5411 169.699 38.8176 170.449 38.8176C170.765 38.8176 171.12 38.7781 171.255 38.7386V40.9116C171.019 41.0076 170.545 41.1487 169.778 41.1487C167.883 41.1487 166.699 40.0198 166.699 38.1403V33.625H164.945V31.2939H165.441C166.468 31.2939 166.941 30.6223 166.941 29.7531V28.3872H169.31V31.2939H169.304Z"/><path fill="black" d="M182.743 36.1536C182.743 39.1337 180.555 41.3067 177.651 41.3067C174.752 41.3067 172.564 39.1337 172.564 36.1536C172.564 33.1509 174.752 30.9948 177.651 30.9948C180.549 30.9948 182.743 33.1509 182.743 36.1536ZM180.121 36.1536C180.121 34.3136 178.936 33.3879 177.651 33.3879C176.37 33.3879 175.186 34.3136 175.186 36.1536C175.186 37.971 176.37 38.9136 177.651 38.9136C178.936 38.9136 180.121 37.9879 180.121 36.1536Z"/><path fill="black" d="M188.506 41.0076V27.01H191.23V38.4H197.462V41.0076H188.506Z"/><path fill="black" d="M200.563 26.4738C201.471 26.4738 202.176 27.2075 202.176 28.1106C202.176 28.9798 201.466 29.7079 200.563 29.7079C199.672 29.7079 198.945 28.9798 198.945 28.1106C198.939 27.2075 199.672 26.4738 200.563 26.4738ZM199.255 41.0076V31.2939H201.883V41.0076H199.255Z"/><path fill="black" d="M208.075 30.2272V31.2939H210.263V33.546H208.075V41.0076H205.43V33.546H203.812V31.2939H205.43V30.1877C205.43 27.9921 206.812 26.5754 208.961 26.5754C209.513 26.5754 210.049 26.6713 210.263 26.7729V28.9855C210.122 28.9403 209.869 28.8839 209.434 28.8839C208.848 28.8839 208.075 29.1435 208.075 30.2272Z"/><path fill="black" d="M220.313 38.225C219.816 39.9069 218.277 41.3067 215.891 41.3067C213.23 41.3067 210.878 39.3933 210.878 36.1141C210.878 33.0098 213.162 30.9948 215.655 30.9948C218.655 30.9948 220.448 32.9138 220.448 36.0294C220.448 36.4076 220.409 36.8026 220.409 36.8422H213.461C213.517 38.1234 214.606 39.0547 215.908 39.0547C217.132 39.0547 217.803 38.4451 218.119 37.5759L220.313 38.225ZM217.865 35.0473C217.826 34.0822 217.194 33.1339 215.694 33.1339C214.335 33.1339 213.585 34.1612 213.523 35.0473H217.865Z"/><path fill="black" d="M223.843 37.559C224.847 37.559 225.659 38.3661 225.659 39.3538C225.659 40.3416 224.847 41.1543 223.843 41.1543C222.856 41.1543 222.05 40.3416 222.05 39.3538C222.05 38.3661 222.856 37.559 223.843 37.559Z"/><path fill="black" d="M229.973 31.2825V27.0098H231.107L232.358 30.1085L233.582 27.0098H234.721V31.2825H233.904V28.3136L232.702 31.2825H231.986L230.785 28.3193V31.2825H229.973Z"/><path fill="black" d="M225.659 27.0098H229.2V27.8057H227.847V31.2825H227.007V27.8057H225.659V27.0098Z"/></g></g></g></svg>

<svg xmlns="http://www.w3.org/2000/svg" fill="none" aria-hidden="true" viewBox="0 0 242 49"><path fill="red" d="M63.648 5.272 58.48 26.375 53.295 5.272H38.09v7.792c-1.826-6.82-8.268-8.532-14.236-8.629C16.584 4.34 8.958 7.5 8.676 17.147h10.06c0-2.912 2.226-4.58 4.734-4.54 3.078-.023 4.498 1.294 4.571 3.352-.107 1.781-1.155 3.025-4.548 3.025H20.11v7.006h3.072c1.741 0 4.17.95 4.266 3.444.119 2.968-1.944 4.28-4.475 4.303-4.525-.164-5.258-3.659-5.258-6.656H7.28c.045 2.02-.451 15.183 15.915 15.087 7.84.073 13.312-3.235 14.918-7.792v6.983h10.303v-22.76l5.568 22.766h9l5.591-22.743v22.765h10.274V5.272h-15.2Zm-25.53 21.052c-1.28-2.663-3.083-3.828-4.103-4.196 2.13-.95 3.252-2.239 4.103-4.812v9.008Z"/><path fill="#000" d="M97.633 9.344c-.14-.768-.772-1.976-2.543-1.976-1.32 0-2.188.847-2.188 1.778 0 .768.49 1.383 1.517 1.58l1.95.379c2.544.496 3.909 2.156 3.909 4.126 0 2.156-1.799 4.323-5.053 4.323-3.71 0-5.346-2.393-5.566-4.385l2.526-.672c.119 1.388 1.083 2.63 3.057 2.63 1.46 0 2.267-.734 2.267-1.721 0-.808-.609-1.445-1.698-1.66l-1.956-.395c-2.228-.452-3.666-1.896-3.666-4.007 0-2.49 2.228-4.386 4.873-4.386 3.394 0 4.697 2.055 5.013 3.64l-2.442.746Zm6.474 5.056c0 1.762 1.145 2.75 2.487 2.75s2.013-.892 2.228-1.637l2.306.767c-.434 1.62-1.951 3.28-4.534 3.28-2.865 0-5.115-2.173-5.115-5.153 0-3.003 2.211-5.16 5.03-5.16 2.645 0 4.145 1.638 4.557 3.28l-2.351.79c-.237-.807-.846-1.637-2.149-1.637-1.331-.005-2.459.966-2.459 2.72Zm10.083-9.673a1.62 1.62 0 0 1 1.619 1.637c0 .869-.711 1.597-1.619 1.597-.885 0-1.618-.728-1.618-1.597a1.63 1.63 0 0 1 1.618-1.637Zm-1.302 14.534V9.546h2.622v9.713h-2.622Zm14.031-2.783c-.491 1.676-2.031 3.076-4.422 3.076-2.662 0-5.013-1.913-5.013-5.193 0-3.104 2.289-5.119 4.776-5.119 3.001 0 4.799 1.92 4.799 5.035 0 .378-.039.773-.039.813h-6.948c.057 1.28 1.145 2.212 2.448 2.212 1.224 0 1.895-.61 2.21-1.479l2.189.655Zm-2.448-3.183c-.039-.966-.671-1.914-2.171-1.914-1.359 0-2.109 1.027-2.171 1.914h4.342Zm4.438 5.965V9.548h2.544v1.202c.592-1.01 1.753-1.456 2.802-1.456 2.408 0 3.514 1.716 3.514 3.85v6.117h-2.623v-5.672c0-1.084-.53-1.936-1.793-1.936-1.145 0-1.816.892-1.816 2.015v5.594h-2.628Zm13.123-4.86c0 1.762 1.145 2.75 2.487 2.75s2.013-.892 2.228-1.637l2.306.767c-.434 1.62-1.951 3.28-4.54 3.28-2.864 0-5.109-2.173-5.109-5.153 0-3.003 2.211-5.16 5.03-5.16 2.645 0 4.145 1.638 4.557 3.28l-2.352.79c-.236-.807-.845-1.637-2.148-1.637-1.331-.005-2.459.966-2.459 2.72Zm17.505 2.078c-.496 1.676-2.036 3.076-4.421 3.076-2.662 0-5.014-1.913-5.014-5.193 0-3.104 2.29-5.119 4.777-5.119 3 0 4.793 1.92 4.793 5.035 0 .378-.039.773-.039.813h-6.948c.062 1.28 1.145 2.212 2.447 2.212 1.224 0 1.895-.61 2.211-1.479l2.194.655Zm-2.448-3.183c-.039-.966-.671-1.914-2.171-1.914-1.359 0-2.109 1.027-2.171 1.914h4.342Zm5.978 2.511c1.004 0 1.816.807 1.816 1.8a1.81 1.81 0 0 1-1.816 1.796 1.802 1.802 0 0 1-1.793-1.795 1.8 1.8 0 0 1 1.793-1.8ZM98.998 37.813h-5.685l-1.161 3.2H89.27l5.368-14.003h3.159l5.323 14.003h-2.96l-1.162-3.2Zm-4.777-2.49h3.869l-1.934-5.293-1.935 5.294Zm10.36 9.444V31.294h2.549v1.185c.434-.75 1.517-1.405 2.977-1.405 2.843 0 4.478 2.173 4.478 5.057 0 2.94-1.833 5.12-4.579 5.12-1.342 0-2.329-.537-2.803-1.186v4.702h-2.622Zm5.013-11.34c-1.342 0-2.425 1.01-2.425 2.727 0 1.715 1.083 2.743 2.425 2.743 1.342 0 2.408-1.005 2.408-2.743-.005-1.722-1.066-2.727-2.408-2.727Zm6.728 11.34V31.294h2.549v1.185c.434-.75 1.517-1.405 2.978-1.405 2.842 0 4.477 2.173 4.477 5.057 0 2.94-1.832 5.12-4.579 5.12-1.342 0-2.329-.537-2.797-1.186v4.702h-2.628Zm5.013-11.34c-1.342 0-2.424 1.01-2.424 2.727 0 1.715 1.082 2.743 2.424 2.743 1.343 0 2.409-1.005 2.409-2.743 0-1.722-1.066-2.727-2.409-2.727Zm6.768 7.581V26.71h2.628v14.297h-2.628Zm6.626-14.534a1.62 1.62 0 0 1 1.619 1.637c0 .869-.711 1.597-1.619 1.597-.891 0-1.618-.728-1.618-1.597 0-.904.733-1.637 1.618-1.637Zm-1.297 14.534v-9.714h2.622v9.714h-2.622Zm14.104-2.783c-.49 1.682-2.03 3.082-4.421 3.082-2.662 0-5.014-1.914-5.014-5.193 0-3.104 2.29-5.12 4.777-5.12 3 0 4.794 1.92 4.794 5.035 0 .379-.04.774-.04.813h-6.942c.062 1.281 1.145 2.213 2.447 2.213 1.224 0 1.895-.61 2.211-1.48l2.188.65Zm-2.442-3.178c-.039-.965-.671-1.913-2.171-1.913-1.365 0-2.115 1.027-2.171 1.913h4.342Zm13.89 4.205c0 .655.04 1.366.079 1.761h-2.509a6.71 6.71 0 0 1-.096-1.123c-.435.768-1.421 1.366-2.724 1.366-2.763 0-4.737-2.173-4.737-5.12 0-2.844 1.917-5.08 4.658-5.08 1.675 0 2.464.695 2.741 1.209V26.71h2.588v12.541Zm-4.934-.355c1.342 0 2.385-1.028 2.385-2.783 0-1.733-1.049-2.703-2.385-2.703-1.342 0-2.408.987-2.408 2.726 0 1.732 1.026 2.76 2.408 2.76Zm15.254-7.603h1.951v2.331h-1.951v4.064c0 .852.395 1.129 1.145 1.129.316 0 .671-.04.806-.08v2.174c-.236.096-.71.237-1.477.237-1.895 0-3.079-1.13-3.079-3.009v-4.515h-1.754v-2.331h.496c1.027 0 1.5-.672 1.5-1.54v-1.367h2.369v2.907h-.006Zm13.439 4.86c0 2.98-2.188 5.153-5.092 5.153-2.899 0-5.087-2.173-5.087-5.153 0-3.003 2.188-5.16 5.087-5.16 2.898 0 5.092 2.157 5.092 5.16Zm-2.622 0c0-1.84-1.185-2.766-2.47-2.766-1.281 0-2.465.926-2.465 2.766 0 1.817 1.184 2.76 2.465 2.76 1.285 0 2.47-.926 2.47-2.76Zm8.385 4.854V27.01h2.724V38.4h6.232v2.608h-8.956Zm12.057-14.534c.908 0 1.613.733 1.613 1.637 0 .869-.71 1.597-1.613 1.597-.891 0-1.618-.728-1.618-1.597a1.626 1.626 0 0 1 1.618-1.637Zm-1.308 14.534v-9.714h2.628v9.714h-2.628Zm8.82-10.781v1.067h2.188v2.252h-2.188v7.462h-2.645v-7.462h-1.618v-2.252h1.618v-1.106c0-2.196 1.382-3.613 3.531-3.613.552 0 1.088.096 1.302.198v2.212c-.141-.045-.394-.101-.829-.101-.586 0-1.359.26-1.359 1.343Zm12.238 7.998c-.497 1.682-2.036 3.082-4.422 3.082-2.661 0-5.013-1.914-5.013-5.193 0-3.104 2.284-5.12 4.777-5.12 3 0 4.793 1.92 4.793 5.035 0 .379-.039.774-.039.813h-6.948c.056 1.281 1.145 2.213 2.447 2.213 1.224 0 1.895-.61 2.211-1.48l2.194.65Zm-2.448-3.178c-.039-.965-.671-1.913-2.171-1.913-1.359 0-2.109 1.027-2.171 1.913h4.342Zm5.978 2.512c1.004 0 1.816.807 1.816 1.795 0 .988-.812 1.8-1.816 1.8a1.803 1.803 0 0 1-1.793-1.8c0-.988.806-1.795 1.793-1.795Zm6.13-6.277V27.01h1.134l1.251 3.098 1.224-3.098h1.139v4.272h-.817v-2.968l-1.202 2.968h-.716l-1.201-2.963v2.963h-.812Zm-4.314-4.272h3.541v.796h-1.353v3.476h-.84v-3.476h-1.348v-.796Z"/></svg>
